**kern	**kern
*part1	*part1
*staff2	*staff1
*I"Piano	*
*clefF4	*clefG2
*k[b-e-a-d-]	*k[b-e-a-d-]
=1	=1
*^	*
8r	2.AA-	4r
4E-	.	.
.	.	(4d- [4e- 4b-
4E-	.	.
.	.	4c-X) 4e-] 4a-
8E-	.	.
*v	*v	*
=	=
(8FF-XL	(8A-L
8AA-	8c-X
8C-X	8f-X
8F-X	8a-
8A-	8cc-X
8c-XJ)	8ff-XJ)
=	=
*^	*^
(2A-	2.C-X 2.c-X	(2f-X 2ff-X	2.cc-X
4G-X)	.	4e-) 4ee-	.
*v	*v	*	*
*	*v	*v
=	=
(8GGL	(8BnL
8BBn	8dn
8Dn	8g
8G	8bn
8Bn	8ddn
8dnJ)	8ggJ)
=	=
*^	*^
(2Bn	2.Dn 2.dn	(2g 2gg	2.ddn
4An)	.	4f#X) 4ff#X	.
*v	*v	*	*
*	*v	*v
=	=
8r	8r
(8FF#XL	(8AnL
8AAn	8c#X
8C#XJ	8f#XJ
4F#X)	4an)
=	=
8r	8r
(8FF-XL	(8A-XL
8AA-X	8d-X
8D-XJ	8f-XJ
4F-X)	4a-X)
=	=
*-	*-
!!!system-decoration: {(s1,s2)}
